theme/less/images/chevron.svg

<svg fill="none" height="11" viewBox="0 0 6 11" width="6" xmlns="http://www.w3.org/2000/svg"><path d="m.398438.367188-.164063.164062c-.117187.117188-.117187.28125 0 .398438l4.570315 4.570312-4.570315 4.5938c-.117187.1171-.117187.2812 0 .3984l.164063.164c.117187.1172.28125.1172.398437 0l4.945315-4.94526c.11719-.11719.11719-.28125 0-.39844l-4.945315-4.945312c-.117187-.117188-.28125-.117188-.398437 0z" fill="#000"/></svg>

<svg aria-hidden="true" width="6" height="11" viewBox="0 0 6 11" fill="none" xmlns="http://www.w3.org/2000/svg">
<path d="M0.398438 0.367188L0.234375 0.53125C0.117188 0.648438 0.117188 0.8125 0.234375 0.929688L4.80469 5.5L0.234375 10.0938C0.117188 10.2109 0.117188 10.375 0.234375 10.4922L0.398438 10.6562C0.515625 10.7734 0.679688 10.7734 0.796875 10.6562L5.74219 5.71094C5.85938 5.59375 5.85938 5.42969 5.74219 5.3125L0.796875 0.367188C0.679688 0.25 0.515625 0.25 0.398438 0.367188Z" fill="black"/>
</svg>
